X: 23
T:Connaughtman's Rambles
M:6/8
R:jig
L:1/8
Z:Alf 
K:D
FAA dAA|BAB dAG|FAA dfe|dBB BAG|FAA dAA|
BAB def|gfe dfe|dBB B3::fbb faa|fef d2e|
fbb faa|fed ede|fbb afe|dBc def|gfe dfe|dBB B3:|
